X: 37227
T: Siubhan Ni Dhuibir
R: waltz
M: 3/4
K: Dmixolydian
D2|D2A2A2|A2B2c2|A2G2E2|D4D2|D4 A2|d4d2|
c4c2|B2A2G2|B4 c2|A4A2|d4d2|c4c2|B2A2G2|B4 c2|A4D2|
D2A2A2|A2B2c2|A2G2E2|D4D2|D4:|

